assets/svg/svgator.svg

<svg width="50" height="50" viewBox="0 0 50 50" fill="none" xmlns="http://www.w3.org/2000/svg">
<path d="M28.4373 31.8267C30.8482 31.8267 32.8027 29.8282 32.8027 27.3629C32.8027 24.8977 30.8482 22.8992 28.4373 22.8992C26.0263 22.8992 24.0718 24.8977 24.0718 27.3629C24.0718 29.8282 26.0263 31.8267 28.4373 31.8267Z" fill="#DDF5FF"/>
<path d="M29.9068 38.5444C29.3407 38.3244 28.7377 38.2207 28.1324 38.2394C27.527 38.2581 26.9313 38.3988 26.3792 38.6533C25.8271 38.9079 25.3295 39.2713 24.9151 39.7228C24.5006 40.1743 24.1773 40.705 23.9638 41.2845C23.8947 41.4953 23.7468 41.6695 23.5523 41.769C23.3579 41.8684 23.1328 41.8849 22.9264 41.8149C21.3518 41.2119 19.8899 40.3374 18.6042 39.2294C18.4551 39.0727 18.3716 38.8626 18.3716 38.6438C18.3716 38.4251 18.4551 38.215 18.6042 38.0583C19.1918 37.3969 19.5831 36.5781 19.7324 35.6977C19.8818 34.8173 19.7829 33.9117 19.4475 33.0866C19.112 32.2615 18.5538 31.5511 17.8381 31.0384C17.1224 30.5258 16.2787 30.232 15.4058 30.1915C12.4078 31.3597 9.1137 31.4686 6.04817 30.5008C6.70693 32.3565 7.67178 34.083 8.90084 35.6054C17.2859 45.7041 21.3488 47.5603 32.6731 41.6602C32.6286 41.5991 32.5923 41.5322 32.565 41.4613C32.3577 40.8058 32.0122 40.2049 31.5529 39.7009C31.0936 39.1968 30.5317 38.8021 29.9068 38.5444Z" fill="#DDF5FF"/>
<path d="M49.0543 12.6458C45.5317 8.22627 26.4058 8.91131 23.1209 9.55214C23.7805 10.9022 24.2325 12.3482 24.4608 13.8391C24.7727 14.5146 25.238 15.1041 25.818 15.5583C26.398 16.0125 27.0758 16.3183 27.7948 16.4502C28.5139 16.5821 29.2534 16.5363 29.9516 16.3166C30.6498 16.0969 31.2865 15.7096 31.8086 15.1871C32.314 14.6791 32.6985 14.0591 32.9324 13.3751C33.0014 13.1643 33.1494 12.9901 33.3438 12.8906C33.5383 12.7912 33.7634 12.7747 33.9697 12.8447C35.5445 13.4473 37.0065 14.3218 38.2919 15.4301C38.4411 15.5869 38.5246 15.797 38.5246 16.0157C38.5246 16.2345 38.4411 16.4446 38.2919 16.6013C37.6364 17.3271 37.2208 18.2454 37.1041 19.2262C36.9874 20.2069 37.1755 21.2004 37.6417 22.0657C38.1078 22.9311 38.8285 23.6245 39.7016 24.0478C40.5746 24.471 41.5558 24.6026 42.5061 24.4239C42.7152 24.37 42.9367 24.4023 43.1227 24.5139C43.3087 24.6256 43.4443 24.8076 43.5002 25.0206C43.744 26.6093 43.744 28.2271 43.5002 29.8158C43.4821 29.9241 43.4429 30.0275 43.3849 30.1199C43.3269 30.2123 43.2512 30.2919 43.1625 30.3537C43.0737 30.4156 42.9737 30.4586 42.8683 30.48C42.763 30.5015 42.6545 30.5011 42.5493 30.4787C41.606 30.2676 40.6217 30.3652 39.7356 30.7576C38.8496 31.15 38.1066 31.8174 37.6119 32.6653C37.1172 33.5133 36.8958 34.4988 36.9791 35.4825C37.0623 36.4662 37.446 37.3982 38.0758 38.1467C46.1368 31.3847 52.4688 16.756 49.0543 12.6458Z" fill="#DDF5FF"/>
<path d="M19.7496 19.2973L18.0639 18.2587C17.8351 18.1158 17.6468 17.9142 17.5179 17.6738C17.389 17.4334 17.3239 17.1627 17.3292 16.8886V16.0489C17.3261 15.7726 17.3945 15.5005 17.5273 15.2599C17.6601 15.0193 17.8527 14.8189 18.0856 14.6788L19.7712 13.6402C19.9546 13.5374 20.1154 13.3974 20.244 13.2287C20.3725 13.06 20.4659 12.8663 20.5185 12.6593C20.5711 12.4524 20.5818 12.2366 20.55 12.0253C20.5181 11.814 20.4443 11.6116 20.3331 11.4305L19.4903 10.0162C19.3916 9.82687 19.256 9.66025 19.0919 9.52663C18.9278 9.393 18.7386 9.29521 18.5361 9.23929C18.3336 9.18337 18.1219 9.17052 17.9144 9.20152C17.7068 9.23253 17.5076 9.30673 17.3292 9.41955L15.6219 10.4581C15.3886 10.5959 15.124 10.6683 14.8547 10.6683C14.5854 10.6683 14.3208 10.5959 14.0875 10.4581L13.3095 9.9941C13.0766 9.85404 12.884 9.65359 12.7512 9.41302C12.6184 9.17244 12.5501 8.90028 12.5531 8.62403V6.56894C12.5533 6.16038 12.3976 5.76787 12.1191 5.47487C11.8406 5.18187 11.4614 5.01151 11.0619 5H9.46272C9.05578 5 8.6655 5.1653 8.37775 5.45953C8.08999 5.75377 7.92834 6.15283 7.92834 6.56894V8.77872C7.93138 9.05496 7.86304 9.32713 7.73023 9.5677C7.59741 9.80827 7.40483 10.0087 7.17195 10.1488L6.39395 10.6128C6.16069 10.7505 5.89609 10.823 5.62675 10.823C5.35741 10.823 5.09281 10.7505 4.85956 10.6128L3.15228 9.41955C2.97517 9.30588 2.7772 9.23043 2.57053 9.19783C2.36386 9.16523 2.15286 9.17616 1.95047 9.22997C1.74809 9.28377 1.5586 9.37931 1.39363 9.51071C1.22867 9.64211 1.09171 9.80661 0.991171 9.9941L0.256393 11.4525C0.145226 11.6337 0.0714352 11.8361 0.0395515 12.0474C0.00766774 12.2587 0.0183641 12.4745 0.0709839 12.6814C0.123604 12.8884 0.217036 13.0821 0.345545 13.2508C0.474053 13.4195 0.634925 13.5595 0.818282 13.6623L2.50395 14.7009C2.72964 14.8418 2.91588 15.04 3.04462 15.2761C3.17336 15.5123 3.24022 15.7785 3.23873 16.0489V16.9328C3.23427 17.2015 3.16238 17.4646 3.02993 17.6968C2.89748 17.9289 2.70892 18.1224 2.48234 18.2587L0.796671 19.2973C0.613314 19.4001 0.452442 19.5401 0.323933 19.7088C0.195425 19.8775 0.101993 20.0712 0.0493728 20.2782C-0.00324696 20.4851 -0.0139434 20.7009 0.0179404 20.9122C0.0498241 21.1235 0.123615 21.3259 0.234782 21.507L1.03439 22.9213C1.13493 23.1088 1.27189 23.2733 1.43685 23.4047C1.60182 23.5361 1.79131 23.6316 1.9937 23.6854C2.19608 23.7392 2.40708 23.7502 2.61375 23.7176C2.82042 23.685 3.01839 23.6095 3.1955 23.4958L4.88117 22.4572C5.11443 22.3195 5.37902 22.247 5.64836 22.247C5.91771 22.247 6.1823 22.3195 6.41556 22.4572L7.19356 22.9213C7.42644 23.0613 7.61902 23.2618 7.75184 23.5024C7.88465 23.7429 7.95299 24.0151 7.94995 24.2913V26.0813C7.94995 26.4974 8.1116 26.8964 8.39936 27.1907C8.68711 27.4849 9.07739 27.6502 9.48433 27.6502H11.0619C11.4689 27.6502 11.8592 27.4849 12.1469 27.1907C12.4347 26.8964 12.5963 26.4974 12.5963 26.0813V24.2472C12.5933 23.9709 12.6616 23.6987 12.7944 23.4582C12.9273 23.2176 13.1198 23.0172 13.3527 22.8771L14.1307 22.413C14.364 22.2753 14.6286 22.2028 14.8979 22.2028C15.1673 22.2028 15.4319 22.2753 15.6651 22.413L17.3292 23.4737C17.5063 23.5874 17.7043 23.6629 17.9109 23.6955C18.1176 23.7281 18.3286 23.7171 18.531 23.6633C18.7334 23.6095 18.9228 23.514 19.0878 23.3826C19.2528 23.2512 19.3897 23.0867 19.4903 22.8992L20.2899 21.4849C20.4028 21.3065 20.4791 21.1065 20.5141 20.8971C20.5492 20.6876 20.5422 20.473 20.4937 20.2664C20.4452 20.0597 20.3562 19.8653 20.232 19.6949C20.1078 19.5245 19.951 19.3817 19.7712 19.2752L19.7496 19.2973ZM10.2623 19.7392C9.61602 19.7436 8.98298 19.5516 8.4435 19.1876C7.90403 18.8237 7.4824 18.3041 7.2321 17.6948C6.98179 17.0854 6.91407 16.4138 7.03754 15.7651C7.161 15.1164 7.47008 14.5198 7.92558 14.0509C8.38109 13.5821 8.9625 13.2621 9.5961 13.1315C10.2297 13.001 10.8869 13.0657 11.4845 13.3176C12.082 13.5695 12.593 13.9972 12.9525 14.5464C13.312 15.0956 13.504 15.7416 13.504 16.4024C13.4983 17.2836 13.152 18.1266 12.5406 18.7476C11.9292 19.3686 11.1025 19.7171 10.2407 19.7171L10.2623 19.7392Z" fill="#3CFFFC"/>
</svg>

<svg xmlns="http://www.w3.org/2000/svg" width="50" height="50" fill="none" viewBox="0 0 50 50"><path fill="#ddf5ff" d="M28.437 31.827c2.411 0 4.366-1.999 4.366-4.464s-1.955-4.464-4.366-4.464-4.365 1.999-4.365 4.464 1.954 4.464 4.365 4.464M29.907 38.544a4.51 4.51 0 0 0-3.528.11 4.6 4.6 0 0 0-1.464 1.069 4.7 4.7 0 0 0-.951 1.562.84.84 0 0 1-.412.484.8.8 0 0 1-.626.046 14.7 14.7 0 0 1-4.322-2.586.85.85 0 0 1 0-1.17 4.75 4.75 0 0 0 1.128-2.361c.15-.88.05-1.786-.284-2.611a4.7 4.7 0 0 0-1.61-2.049 4.54 4.54 0 0 0-2.432-.846 14.07 14.07 0 0 1-9.358.309 17.4 17.4 0 0 0 2.853 5.104c8.385 10.1 12.448 11.955 23.772 6.055a1 1 0 0 1-.108-.199 4.7 4.7 0 0 0-1.012-1.76 4.6 4.6 0 0 0-1.646-1.157"/><path fill="#ddf5ff" d="M49.054 12.646c-3.522-4.42-22.648-3.735-25.933-3.094a14.9 14.9 0 0 1 1.34 4.287 4.7 4.7 0 0 0 1.357 1.72c.58.454 1.258.76 1.977.891.719.132 1.458.086 2.157-.133a4.56 4.56 0 0 0 1.857-1.13 4.75 4.75 0 0 0 1.123-1.812.84.84 0 0 1 .412-.484c.194-.1.42-.116.626-.046a14.6 14.6 0 0 1 4.322 2.585.85.85 0 0 1 0 1.171 4.75 4.75 0 0 0-1.188 2.625c-.117.98.072 1.974.538 2.84a4.65 4.65 0 0 0 2.06 1.982 4.5 4.5 0 0 0 2.804.376.8.8 0 0 1 .617.09.84.84 0 0 1 .377.507 15.8 15.8 0 0 1 0 4.795.83.83 0 0 1-.337.538.8.8 0 0 1-.614.125 4.5 4.5 0 0 0-2.813.279 4.64 4.64 0 0 0-2.124 1.907 4.79 4.79 0 0 0 .464 5.482c8.06-6.762 14.393-21.391 10.978-25.501"/><path fill="#3cfffc" d="m19.75 19.297-1.686-1.038a1.56 1.56 0 0 1-.546-.585 1.6 1.6 0 0 1-.189-.785v-.84a1.6 1.6 0 0 1 .198-.79c.133-.24.326-.44.559-.58l1.685-1.039c.184-.103.344-.243.473-.411a1.58 1.58 0 0 0 .306-1.204 1.6 1.6 0 0 0-.217-.594l-.843-1.415a1.6 1.6 0 0 0-.398-.49 1.52 1.52 0 0 0-1.178-.324 1.5 1.5 0 0 0-.585.218l-1.707 1.038a1.51 1.51 0 0 1-1.534 0l-.778-.464a1.55 1.55 0 0 1-.559-.581 1.6 1.6 0 0 1-.198-.789V6.569c0-.409-.155-.801-.434-1.094A1.52 1.52 0 0 0 11.062 5h-1.6c-.406 0-.796.165-1.084.46-.288.294-.45.693-.45 1.109v2.21c.003.276-.065.548-.198.789-.133.24-.325.44-.558.58l-.778.465a1.51 1.51 0 0 1-1.534 0L3.152 9.42a1.51 1.51 0 0 0-1.202-.19c-.202.054-.391.15-.556.28a1.6 1.6 0 0 0-.403.484l-.735 1.459a1.6 1.6 0 0 0-.185 1.228c.053.207.146.401.275.57.128.168.289.309.472.411l1.686 1.039c.226.14.412.339.54.575.13.236.196.502.195.773v.884a1.6 1.6 0 0 1-.21.764 1.55 1.55 0 0 1-.547.562L.797 19.297a1.5 1.5 0 0 0-.473.412 1.58 1.58 0 0 0-.306 1.203c.032.212.106.414.217.595l.8 1.414a1.521 1.521 0 0 0 1.58.796c.205-.032.403-.108.58-.221l1.686-1.039a1.51 1.51 0 0 1 1.535 0l.778.464c.232.14.425.34.558.581s.201.513.198.79v1.79c0 .415.162.814.45 1.109.287.294.677.46 1.084.46h1.578c.407 0 .797-.166 1.085-.46s.45-.694.45-1.11v-1.834a1.6 1.6 0 0 1 .197-.789c.133-.24.326-.44.559-.58l.778-.465a1.51 1.51 0 0 1 1.534 0l1.664 1.06a1.51 1.51 0 0 0 1.202.19 1.5 1.5 0 0 0 .557-.28 1.6 1.6 0 0 0 .402-.484l.8-1.414a1.6 1.6 0 0 0 .204-1.219 1.6 1.6 0 0 0-.262-.571 1.55 1.55 0 0 0-.46-.42zm-9.488.442a3.2 3.2 0 0 1-1.819-.551 3.3 3.3 0 0 1-1.21-1.493 3.4 3.4 0 0 1-.195-1.93 3.36 3.36 0 0 1 .888-1.714 3.24 3.24 0 0 1 1.67-.92 3.2 3.2 0 0 1 1.889.187 3.3 3.3 0 0 1 1.468 1.228c.359.55.551 1.196.551 1.856a3.37 3.37 0 0 1-.963 2.346 3.23 3.23 0 0 1-2.3.97z"/></svg>
